X: 51
T: Willie Coleman's
R: jig
S: amazoncreek.com 2009-11-2
M: 6/8
L: 1/8
K: G
A |:\
B2G AGE | GED G2d | edB dgb | age dBA |\
BzB AGE | GED G2d | edB dBA | BGG G3 :|
|:\
g3  edB | dgb age | g3  edB | GBd e2d |\
g3  edB | dgb age | dBd gdB | AGF G3 :|
